svgs/sharp-light/inbox.svg

<svg xmlns="http://www.w3.org/2000/svg" viewBox="0 0 512 512"><!--! Font Awesome Pro 6.6.0 by @fontawesome - https://fontawesome.com License - https://fontawesome.com/license (Commercial License) Copyright 2024 Fonticons, Inc. --><path d="M32 448l448 0 0-124.1-1-3.9-101.1 0-27.6 55.2-4.4 8.8-9.9 0-160 0-9.9 0-4.4-8.8L134.1 320 33 320l-1 3.9L32 448zM471 288L415 64 97 64 41 288l103 0 9.9 0 4.4 8.8L185.9 352l140.2 0 27.6-55.2 4.4-8.8 9.9 0 103 0zM0 448L0 320 72 32l368 0 72 288 0 128 0 32-32 0L32 480 0 480l0-32z"/></svg>

<svg xmlns="http://www.w3.org/2000/svg" viewBox="0 0 512 512"><!--! Font Awesome Pro 6.4.2 by @fontawesome - https://fontawesome.com License - https://fontawesome.com/license (Commercial License) Copyright 2023 Fonticons, Inc. --><path d="M32 448H480V323.9l-1-3.9H377.9l-27.6 55.2-4.4 8.8H336 176h-9.9l-4.4-8.8L134.1 320H33l-1 3.9V448zM471 288L415 64H97L41 288H144h9.9l4.4 8.8L185.9 352H326.1l27.6-55.2 4.4-8.8H368 471zM0 448V320L72 32H440l72 288V448v32H480 32 0V448z"/></svg>
